_includes/icons/ios-ssd.svg

<svg fill="#666" height="50" viewBox="0 0 50 50" width="50" xmlns="http://www.w3.org/2000/svg"><path d="m7.6875 0c-.957031 0-1.71875.660156-1.875 1.59375l-5.71875 33.8125c-.0585937.1875-.09375.390625-.09375.59375v12c0 1.09375.90625 2 2 2h46c1.09375 0 2-.90625 2-2v-12c0-.296875-.066406-.589844-.1875-.84375l-5.625-33.5625c-.15625-.933594-.917969-1.59375-1.875-1.59375zm.09375 2h34.4375l5.375 32h-45.21875zm-5.78125 34h45.96875c.007813.019531.019531.042969.03125.0625v11.9375h-46zm5 4v5h27v-5h-2v3h-3v-3h-2v3h-3v-3h-2v3h-3v-3h-2v3h-3v-3h-2v3h-3v-3zm34 0c-1.105469 0-2 .894531-2 2s.894531 2 2 2 2-.894531 2-2-.894531-2-2-2z"/></svg>

<svg xmlns="http://www.w3.org/2000/svg" viewBox="0 0 50 50" width="50" height="50" fill="#666"><path d="M 7.6875 0 C 6.730469 0 5.96875 0.660156 5.8125 1.59375 L 0.09375 35.40625 C 0.0351563 35.59375 0 35.796875 0 36 L 0 48 C 0 49.09375 0.90625 50 2 50 L 48 50 C 49.09375 50 50 49.09375 50 48 L 50 36 C 50 35.703125 49.933594 35.410156 49.8125 35.15625 L 44.1875 1.59375 C 44.03125 0.660156 43.269531 0 42.3125 0 Z M 7.78125 2 L 42.21875 2 L 47.59375 34 L 2.375 34 Z M 2 36 L 47.96875 36 C 47.976563 36.019531 47.988281 36.042969 48 36.0625 L 48 48 L 2 48 Z M 7 40 L 7 45 L 34 45 L 34 40 L 32 40 L 32 43 L 29 43 L 29 40 L 27 40 L 27 43 L 24 43 L 24 40 L 22 40 L 22 43 L 19 43 L 19 40 L 17 40 L 17 43 L 14 43 L 14 40 L 12 40 L 12 43 L 9 43 L 9 40 Z M 41 40 C 39.894531 40 39 40.894531 39 42 C 39 43.105469 39.894531 44 41 44 C 42.105469 44 43 43.105469 43 42 C 43 40.894531 42.105469 40 41 40 Z"/></svg>
